X:1
T:Title
%%score 1 { 2 | 3 }
L:1/8
Q:1/4=83
M:6/8
K:A
V:1 treble nm="Grand Piano, Soprano"
V:2 bass nm="Grand Piano, Bass"
V:3 bass 
V:1
 z3 z2 [CE]/[CE]/ | [CA][CA][CA] [Ec][DB][CA] | [FA][EG][DF] [CE]2 [CE] | %3
w: 1.~We~ are~|kept~ by~ the~ pow er~ and~|fa vor~ of~ God~ From~|
 [EA][EA][EA] [EA][EB][Ec] | [EB]3- [EB]2 E | [EA][EA][EA] [Ec][DB][CA] | [FA][EG][DF] [CE]2 [CE] | %7
w: all~ the~ do min ion~ of~|sin;~ * He~|cleans eth~ by~ faith~ in~ His~|own~ pre cious~ blood,~ His~|
 [CA][CA][CA] [DB][DB][DB] | [CA]3- [CA]2 [CE]/[CE]/ | [DF][DF][DF] [FA][EG][DF] | %10
w: spir it~ is~ reign ing~ with|in.~ * * *||
 [CE]3- [CE]2 [EA]/[EA]/ | [EG][EG][EG] [EB][EB][EB] | [EA]3- [EA]2 [Ec] | %13
w: |||
 [Ee][Ac][Ac] [Ac][EB][EA] | [FB][FA]F [FA][EG][DF]/[DF]/ | [CE][CA][CA] [DB][DB][DB] | [CA]6 |] %17
w: ||||
V:2
 z3 z2 A,/A,/ | A,A,A, A,A,A, | A,A,A, A,2 A, | CCC A,G,[K:bass]A, | G,3- G,2 D | CCC A,A,A, | %6
 A,A,A, A,2 A, | A,A,A, G,G,G, | A,3- A,2 A,/A,/ | A,A,A, A,A,A, | A,A,A, A,2 C/C/ | %11
 B,B,B,[K:treble] DCB, | CCC C2 A, | CEE EDC | A,A,A, A,A,A,/A,/ | A,A,A, G,G,G, | A,6 |] %17
V:3
 z3 z2 A,,/A,,/ | A,,A,,A,, A,,A,,A,, | D,D,D, A,,2 A,, | A,,A,,A,, C,B,,A,, | E,3- E,2 E, | %5
 A,,A,,A,, A,,A,,A,, | D,D,D, A,,2 A,, | E,E,E, E,E,E, | A,,3- A,,2 A,,/A,,/ | D,D,D, D,D,D, | %10
 A,,C,E, z2 A,,/A,,/ | E,E,E, E,E,E, | A,E,C, .A,,3 | A,A,A, A,,B,,C, | D,D,D, D,D,D,/D,/ | %15
 E,E,E, E,E,E, | A,,6 |] %17

